X:23
T:GB/7c/23 Liverpool Hornpipe
%%VWML:GB-7c-23-0
F:http://www.vwml.org/record/GB/7c/23
C:Transcribed by Simon Furey and Lewis Jones
L:1/8
M:2/2
I:linebreak $
K:Bb
AG | F2 DG F2 DE | DF B4 AG | F2 DG F2 DF | G2 C2 C4 | F2 DG F2 DE |$ DF B4 c2 | d2 B2 ABcA |
B6 :: Bc | d2 d4 d2 | c2 A2 cdce |$ d2 B2 d2 B2 | cBAG F4 | d2 d4 d2 | cBAB cdce | d2 B2 ABcA | B6 :|

